!!!OTL: Die Koenigskinder Es warn zwei Koenigskinder,
!!!ARE: Europa, Mitteleuropa, Deutschland (BRD), Rheinprovinz
!!!YOR: 1, S. 221
!!    1833 gedruckt
!!!SCT: Q0020N
!!!YEM: Copyright 1995, estate of Helmut Schaffrath.
**kern
*ICvox
*Ivox
*M2/4
*k[f#]
*G:
{8d
=1
8.g
16g
8.b
16g
=2
8g
8f#
8f#}
{8d
=3
8a
16a
16a
8cc
16a
16a
=4
4g
8r}
{16g
16b
=5
8dd
16dd
16dd
8dd
16cc
16cc
=6
4b
16dd
16cc}
{16b
16a
=7
8g
16g
16g
16b
16a
16g
16a
=8
4b}
{4a
=9
8b
16dd
16dd
16dd
16cc
16b
16a
=10
4g
8r}
==
!!!AGN: Ballade, Liebe, Trennung, Tod
!!!ONB: ESAC (Essen Associative Code) Database: BALLADE
!!!AMT: simple duple
!!!AIN: vox
!!!EED: Helmut Schaffrath
!!!EEV: 1.0
*-
